X:17
%%etbk:tnset id:6,pos:3,rep:3x,ant:
%%etbk:wsite http://www.thesession.org/tunes/display/1131
%%etbk:skill ?
%%etbk:pldat 2013-11-26T15:32,2013-11-23T15:08,2013-10-05T16:34,2013-09-29T15:10,2013-09-27T17:23,2013-09-02T19:05,2013-09-01T16:50,2013-05-22T15:46
T: Richard Dwyer's
Z: Piano Box Version by Martin Fleischmann
H: Created 2013-02-19 /  Last Modified 2013-11-26
M: 4/4
L: 1/8
R: Reel
K: Ador
|:!1!A2!5!eA !3!cd!5!ec | !4!d2!2!B!1!G !4!A!2!F!3!G!2!F | !1!E!2!A!4!c!2!A !3!B!1!d!4!g!3!f | !2!e!5!aag !5!a3g |
!2!e2ed !3!c!1!A A2 | !1!B!5!g!3!d!2!c !1!B!3!dc!1!B | !2!A!1!E!3!cE !4!dE!3!c!4!d| !5!e!3!c!2!B!1!G !1!E!2!A!1!A2:||
|: !5!a2!1!e!3!a !5!c'aea | !2!g2!1!dg !4!bg!1!d!4!g | !3!ag!1!e!2!d !1!c2!5!ed | !3!c!1!A!2!B!1!G G!2!A!1!A2 |
!5!a2!1!e!3!a !5!c'ae!3!a | !2!g!1!e!2!d!1!c !2!BcdB | !1!A2 !2!(3Bcd !2!e!5!aaf | !4!g!2!e!1!d!2!B c!1!AA2:||
